www/assets/icons/cloud_circle.svg

<svg xmlns="http://www.w3.org/2000/svg" width="24" height="24" viewBox="0 0 24 24" fill='currentColor'><path d="M12 2C6.48 2 2 6.48 2 12s4.48 10 10 10 10-4.48 10-10S17.52 2 12 2m4.5 14H8c-1.66 0-3-1.34-3-3s1.34-3 3-3l.14.01A3.98 3.98 0 0 1 12 7c2.21 0 4 1.79 4 4h.5a2.5 2.5 0 0 1 0 5"/></svg>

<svg width="24" height="24" viewBox="0 0 24 24" xmlns="http://www.w3.org/2000/svg" fill='currentColor'><path d="M12 2C6.48 2 2 6.48 2 12C2 17.52 6.48 22 12 22C17.52 22 22 17.52 22 12C22 6.48 17.52 2 12 2ZM16.5 16H8C6.34 16 5 14.66 5 13C5 11.34 6.34 10 8 10L8.14 10.01C8.58 8.28 10.13 7 12 7C14.21 7 16 8.79 16 11H16.5C17.88 11 19 12.12 19 13.5C19 14.88 17.88 16 16.5 16Z"/></svg>
